X: 812
T: Slievenamon
R: hornpipe
%S: s:4 b:16(4+4+4+4)
B: Francis O'Neill: "The Dance Music of Ireland" (1907) #812
Z: Frank Nordberg - http://www.musicaviva.com
F: http://www.musicaviva.com/abc/tunes/ireland/oneill-1001/0812/oneill-1001-0812-1.abc
N: Initial pickup (B2{c/B/A/}) rewritten to fit abc1 software.
M: C|
L: 1/8
K: G
%%slurgraces 1
%%graceslurs 1
"A^"|:\
(B>c/B/A/)| G>DB,>D  G,>DB,>D | G>BA>G (3(EFE) D>F | G>Bd>f g>dB>d | cBAG F ||
||    edc | B>GF>G (TE>D)B,>D | G>AB>G (3(EFG) D>F | G>Bd>g (3(efg) d>c | B2G2G2 :|
"B"|: B>c | d>g (3({a}gfg) b>g ((3{a}gfg) | d>gb>g a>gf>g | a>ga>b c'>ba>g | f>gf>e d>g ||
||   B>^c | d>g (3({a}gfg) b>g ((3{a}gfg) | d2 b>g (3(efg) d>c | (3(Bcd) g>d A>dc>A | B2G2G2 :|
